X: 199
T: Eli Ata
O: Chassidic
M: C
L: 1/8
K: Am
[| "Am"E2 A2 A2 A2 | "E"^GA BA B4 | "E"E2 ^G2 G3 E | "E"E^G BG "Am"A4 |
|   "F"A2 c2 c2 c2 | "Am"cd ec "Dm"d4 | "Am"cB Ac "E"BA ^GB | "Am"A6 z2 |]
[| "Am"c2 e2 e2 e2 | "Am"ce ge "Dm"d4 | "E7"B2 d2 d3 B | "E7"Bd fd "Am"c4 |
|   "F"A2 c2 c2 c2 | "Am"cd ec "Dm"d4 | "Am"cB Ac "E"BA ^GB | "Am"A6 z2 |]



